Newaita-dark/actions/32/format-text-symbol.svg

<svg height="32" viewBox="0 0 32 32" width="32" xmlns="http://www.w3.org/2000/svg"><path d="m15.875 6.203125c-4.394531 0-7.9375 2.65625-7.9375 5.953125h2.648438c0-1.832031 2.359374-3.304688 5.289062-3.304688 2.933594 0 5.292969 1.472657 5.292969 3.304688v7.9375c0 1.835938-2.359375 3.308594-5.292969 3.308594-2.566406 0-4.699219-1.132813-5.1875-2.644532h-2.699219c.433594 2.984376 3.789063 5.292969 7.886719 5.292969 4.398438 0 7.941406-2.65625 7.941406-5.957031v-7.9375c0-3.296875-3.542968-5.953125-7.941406-5.953125zm0 0" fill="#e0e0e0"/></svg>

<svg xmlns="http://www.w3.org/2000/svg" xmlns:xlink="http://www.w3.org/1999/xlink" width="32px" height="32px" viewBox="0 0 32 32" version="1.1">
<g id="surface1">
     <defs>
  <style id="current-color-scheme" type="text/css">
   .ColorScheme-Text { color:#eeeeee; } .ColorScheme-Highlight { color:#424242; }
  </style>
 </defs>
<path style="fill:currentColor" class="ColorScheme-Text" d="M 15.875 6.203125 C 11.480469 6.203125 7.9375 8.859375 7.9375 12.15625 L 10.585938 12.15625 C 10.585938 10.324219 12.945312 8.851562 15.875 8.851562 C 18.808594 8.851562 21.167969 10.324219 21.167969 12.15625 L 21.167969 20.09375 C 21.167969 21.929688 18.808594 23.402344 15.875 23.402344 C 13.308594 23.402344 11.175781 22.269531 10.6875 20.757812 L 7.988281 20.757812 C 8.421875 23.742188 11.777344 26.050781 15.875 26.050781 C 20.273438 26.050781 23.816406 23.394531 23.816406 20.09375 L 23.816406 12.15625 C 23.816406 8.859375 20.273438 6.203125 15.875 6.203125 Z M 15.875 6.203125 "/>
</g>
</svg>
